X: 43079
T: Wind That Shook The Barley, The
R: hornpipe
M: 4/4
K: Gmajor
e|:d>B G>A B>A B>e|d>B G>A B>A A>e|
d>B G>A B>A B>c|1 (3def (3gfe d>B B>e:|2 (3def (3gfe d>B B>d|
g2 g2 f>g a2|g>f (3gfe d>B B>d|
g2 g2 f>g a2|1 b>a (3gfe d>B B>d:|2 b>a (3gfe d>B B||

